img/scalping-university.svg

<svg width="234" height="84" viewBox="0 0 234 84" fill="none" xmlns="http://www.w3.org/2000/svg">
<path d="M37.4115 47.8884C35.5493 46.8254 34.104 45.3429 33.1034 43.4128C32.075 41.4828 31.5747 39.245 31.5747 36.7275V27.8883C31.5747 25.3709 32.1028 23.1331 33.1312 21.203C34.1596 19.273 35.6327 17.7625 37.5227 16.7275C39.4127 15.6646 41.6084 15.1331 44.0821 15.1331H49.1407C51.531 15.1331 53.6156 15.6366 55.45 16.6716C57.2566 17.7065 58.6741 19.1331 59.6747 20.9793C60.6753 22.8254 61.1756 24.9513 61.1756 27.3849H54.6995C54.6995 25.4548 54.1992 23.9163 53.1709 22.7415C52.1425 21.5667 50.8083 20.9793 49.1685 20.9793H44.1099C42.3311 20.9793 40.8858 21.6506 39.8296 22.9653C38.7456 24.28 38.2175 26.0422 38.2175 28.1681V36.4198C38.2175 38.5737 38.7456 40.3079 39.8018 41.6226C40.858 42.9373 42.2199 43.6086 43.9432 43.6086H49.0851C50.7806 43.6086 52.1425 42.9653 53.1987 41.6506C54.2548 40.3359 54.7829 38.6016 54.7829 36.4758H61.259C61.259 39.0772 60.7587 41.3429 59.7303 43.3289C58.7019 45.287 57.2844 46.8254 55.45 47.8884C53.6156 48.9513 51.4754 49.4828 49.0573 49.4828H43.9154C41.4139 49.4828 39.2737 48.9513 37.4115 47.8884Z" fill="white"></path>
<path d="M83.9394 41.2587H71.432L68.4858 49.0909H61.6206L74.6839 15.4964H77.6301C79.6869 15.4964 81.1044 16.4475 81.827 18.3776L93.6952 49.0909H86.83L83.9394 41.2587ZM73.2108 35.6922H82.1884L77.7413 23.6083H77.6857L73.2108 35.6922Z" fill="white"></path>
<path d="M97.8357 47.8601C97.0019 47.0489 96.585 45.958 96.585 44.6153V15.4964H103.172V43.3286H121.294V49.0909H101.227C99.8091 49.0909 98.6695 48.6713 97.8357 47.8601Z" fill="white"></path>
<path d="M124.602 15.4964H142.196C144.141 15.4964 145.865 15.8601 147.338 16.6153C148.839 17.3706 150.006 18.4335 150.812 19.8321C151.646 21.2307 152.063 22.8251 152.063 24.6153V29.0909C152.063 30.937 151.646 32.5874 150.784 34.0139C149.923 35.4405 148.727 36.5314 147.171 37.3146C145.642 38.0978 143.836 38.4895 141.807 38.4895H131.189V49.0909H124.602V15.4964ZM141.751 32.7272C142.863 32.7272 143.78 32.3636 144.475 31.6363C145.17 30.909 145.531 29.958 145.531 28.7832V24.895C145.531 23.7762 145.225 22.8811 144.614 22.2377C144.002 21.5943 143.169 21.2587 142.168 21.2587H131.189V32.7272H141.751Z" fill="white"></path>
<path d="M156.176 15.4964H162.763V49.0909H156.176V15.4964Z" fill="white"></path>
<path d="M169.156 15.4964H175.021L191.058 38.3496V15.4964H197.506V49.0909H191.642L175.605 26.2377V49.0909H169.156V15.4964Z" fill="white"></path>
<path d="M208.374 47.8884C206.484 46.8254 205.038 45.3429 204.01 43.4128C202.982 41.4828 202.454 39.245 202.454 36.7275V27.8883C202.454 25.3709 202.982 23.1331 204.01 21.203C205.038 19.273 206.512 17.7625 208.402 16.7275C210.292 15.6646 212.487 15.1331 214.961 15.1331H220.298C222.688 15.1331 224.772 15.6086 226.607 16.5597C228.413 17.5107 229.831 18.8814 230.832 20.6436C231.832 22.4058 232.332 24.4478 232.332 26.7415H225.856C225.856 25.0072 225.356 23.6086 224.328 22.5737C223.299 21.5107 221.965 20.9793 220.325 20.9793H214.989C213.21 20.9793 211.765 21.6506 210.708 22.9653C209.625 24.28 209.096 26.0422 209.096 28.1681V36.4198C209.096 38.5737 209.625 40.3079 210.681 41.6226C211.737 42.9373 213.154 43.6086 214.905 43.6086H220.52C222.132 43.6086 223.494 43.0212 224.55 41.8464C225.606 40.6716 226.134 39.1891 226.134 37.4268V36.3639H216.879V30.6016H232.61V37.4268C232.61 39.7765 232.11 41.8464 231.082 43.6646C230.053 45.4828 228.636 46.9093 226.801 47.9443C224.967 48.9793 222.855 49.4828 220.492 49.4828H214.85C212.404 49.4828 210.236 48.9513 208.374 47.8884Z" fill="white"></path>
<path d="M21.7906 29.7333C24.987 29.7333 27.5719 32.3627 27.5163 35.5795C27.4885 38.6564 27.3773 42.0131 27.2105 43.1319C26.6268 46.7124 23.5139 49.2298 19.845 49.3417C16.343 49.4256 12.8687 49.4536 9.3666 49.3417C4.78055 49.2019 1.47303 45.7054 1.38965 41.062C1.38965 40.3068 1.38965 39.5235 1.38965 38.6564H7.22645C7.22645 39.3837 7.19865 40.1389 7.22645 40.9221C7.28203 42.6564 8.00468 43.5235 9.67234 43.5515C12.8965 43.6075 16.1206 43.6075 19.317 43.5515C20.9846 43.5235 21.7628 42.6005 21.7628 40.8942C21.8184 37.7054 21.7906 30.3487 21.7906 29.7333Z" fill="white"></path>
<path d="M7.25356 35.1878C4.02942 35.1878 1.41676 32.5584 1.44456 29.3137C1.44456 28.4465 1.44456 27.6633 1.44456 27.1318C1.44456 25.0899 1.47235 23.0199 1.86147 21.0339C2.52853 17.6213 5.83605 15.0479 9.31034 14.992C12.6179 14.964 15.9254 14.964 19.2607 14.992C23.8467 15.0199 27.4878 18.5444 27.5434 23.1598C27.5712 25.1458 27.5712 25.7892 27.5712 25.7892C27.5712 25.7892 22.9573 25.8171 21.79 25.8171C21.79 24.8941 21.8178 24.1668 21.79 23.4116C21.7622 21.985 20.6226 20.8381 19.2329 20.8102C16.0921 20.7542 12.9236 20.7542 9.78284 20.8102C8.14298 20.8381 7.28135 21.8451 7.25356 23.5794C7.22576 26.7682 7.25356 34.7123 7.25356 35.1878Z" fill="white"></path>
<path d="M12.4238 52.64L12.4238 59.1325C12.4238 59.6919 12.8685 60.1395 13.4244 60.1395H15.5924C16.1483 60.1395 16.593 59.6919 16.593 59.1325V52.64H12.4238Z" fill="#2AF895"></path>
<path d="M12.4238 4.36809V11.7599H16.593V4.36809C16.593 3.80865 16.1483 3.3611 15.5924 3.3611H13.4244C12.8963 3.33313 12.4238 3.80865 12.4238 4.36809Z" fill="#2AF895"></path>
<path d="M18.763 37.96C18.7631 39.2634 17.7065 40.3201 16.403 40.3201H12.5517C11.2484 40.3201 10.1918 39.2636 10.1917 37.9602L10.1911 26.4404C10.191 25.137 11.2476 24.0803 12.551 24.0802L16.4024 24.0801C17.7058 24.0801 18.7625 25.1367 18.7625 26.44L18.763 37.96Z" fill="#2AF895"></path>
<path d="M8.86731 79.9167C7.75554 79.2733 6.89392 78.3503 6.28245 77.1475C5.67097 75.9447 5.36523 74.602 5.36523 73.0356V56.7559H7.86672V73.1195C7.86672 74.7698 8.31143 76.1125 9.17305 77.1195C10.0625 78.1265 11.202 78.63 12.6473 78.63H16.3162C17.7615 78.63 18.9288 78.1265 19.7905 77.1195C20.6799 76.1125 21.0968 74.7698 21.0968 73.1195V56.7559H23.5983V73.0356C23.5983 74.574 23.2925 75.9447 22.6811 77.1475C22.0696 78.3503 21.208 79.2733 20.0962 79.9167C18.9844 80.5601 17.7059 80.8957 16.2606 80.8957H12.7029C11.2576 80.8678 9.97908 80.5601 8.86731 79.9167Z" fill="white" fill-opacity="0.5"></path>
<path d="M33.354 56.756H35.7165L48.8354 76.6161V56.756H51.2813V80.5881H48.9188L35.7999 60.8679V80.5881H33.354V56.756Z" fill="white" fill-opacity="0.5"></path>
<path d="M61.4258 56.7559H63.9273V80.588H61.4258V56.7559Z" fill="white" fill-opacity="0.5"></path>
<path d="M80.9382 80.2244C80.6603 79.9726 80.4101 79.581 80.2156 79.0216L72.1274 56.7559H74.7123L82.0778 77.567H82.1056L89.5267 56.7559H92.1115L83.3007 80.588H82.0222C81.5775 80.588 81.2162 80.4761 80.9382 80.2244Z" fill="white" fill-opacity="0.5"></path>
<path d="M100.533 80.0006C100.144 79.609 99.9492 79.0496 99.9492 78.3503V56.7559H115.848V58.9377H102.451V67.3293H114.847V69.5111H102.451V78.4342H115.848V80.616H102.145C101.45 80.588 100.922 80.3922 100.533 80.0006Z" fill="white" fill-opacity="0.5"></path>
<path d="M124.658 56.756H136.165C137.888 56.756 139.305 57.2595 140.334 58.2385C141.39 59.2175 141.918 60.5322 141.918 62.1266V64.6161C141.918 65.8189 141.529 66.8818 140.778 67.8049C140 68.728 138.972 69.3714 137.693 69.763V69.7909C138.36 70.1546 138.972 70.742 139.528 71.5252C140.084 72.3084 140.5 73.2035 140.806 74.2105L142.668 80.5881H140.084L138.221 74.2105C137.916 73.0916 137.36 72.1965 136.581 71.5252C135.803 70.8539 134.942 70.4902 134.024 70.4902H127.159V80.5602H124.658V56.756ZM135.275 68.2804C136.526 68.2804 137.526 67.9448 138.277 67.2734C139.027 66.6021 139.416 65.735 139.416 64.6441V62.0147C139.416 61.1196 139.111 60.3923 138.499 59.8329C137.888 59.3014 137.082 59.0217 136.109 59.0217H127.187V68.2804H135.275Z" fill="white" fill-opacity="0.5"></path>
<path d="M153.537 80.0005C152.508 79.4131 151.702 78.6019 151.118 77.539C150.535 76.476 150.257 75.2732 150.257 73.8746H152.703C152.703 75.2732 153.12 76.4201 153.926 77.2872C154.76 78.1543 155.843 78.6019 157.205 78.6019H160.93C162.264 78.6019 163.32 78.2942 164.154 77.7068C164.988 77.1194 165.377 76.3082 165.377 75.3292V73.1474C165.377 72.3641 165.071 71.7208 164.488 71.1613C163.876 70.6299 163.07 70.2662 162.042 70.0984L155.955 69.0634C154.231 68.7557 152.897 68.1683 151.952 67.2173C151.007 66.2942 150.535 65.1194 150.535 63.7208V61.8746C150.535 60.2243 151.146 58.8816 152.369 57.9026C153.592 56.9236 155.232 56.4201 157.261 56.4201H161.097C163.014 56.4201 164.571 57.0075 165.738 58.1823C166.906 59.3571 167.489 60.8956 167.489 62.7977H165.043C165.043 61.539 164.682 60.5599 163.959 59.8047C163.237 59.0494 162.292 58.6858 161.097 58.6858H157.261C155.982 58.6858 154.954 58.9655 154.176 59.5529C153.398 60.1404 153.036 60.9236 153.036 61.8746V63.7208C153.036 64.504 153.314 65.1753 153.898 65.7348C154.482 66.2662 155.26 66.6299 156.288 66.8257L162.347 67.8886C164.098 68.1963 165.46 68.8117 166.433 69.7068C167.406 70.6019 167.878 71.7487 167.878 73.1194V75.3012C167.878 76.9515 167.239 78.2942 165.988 79.3012C164.738 80.3082 163.07 80.8117 161.013 80.8117H157.122C155.76 80.8676 154.565 80.5879 153.537 80.0005Z" fill="white" fill-opacity="0.5"></path>
<path d="M177.022 56.756H179.524V80.5881H177.022V56.756Z" fill="white" fill-opacity="0.5"></path>
<path d="M195.505 58.9377H188.001V56.7559H205.539V58.9377H198.035V80.588H195.533V58.9377H195.505Z" fill="white" fill-opacity="0.5"></path>
<path d="M220.215 71.4412L211.487 56.7559H214.183L221.465 69.1475L228.748 56.7559H231.444L222.716 71.4412V80.616H220.215V71.4412Z" fill="white" fill-opacity="0.5"></path>
</svg>

<svg width="234" height="84" fill="none" xmlns="http://www.w3.org/2000/svg"><path d="M37.411 47.888c-1.862-1.063-3.307-2.545-4.308-4.475-1.028-1.93-1.528-4.168-1.528-6.685v-8.84c0-2.517.528-4.755 1.556-6.685 1.029-1.93 2.502-3.44 4.392-4.476 1.89-1.062 4.085-1.594 6.56-1.594h5.058c2.39 0 4.475.504 6.309 1.539 1.807 1.034 3.224 2.461 4.225 4.307 1 1.846 1.5 3.972 1.5 6.406H54.7c0-1.93-.5-3.469-1.53-4.644-1.028-1.174-2.362-1.762-4.002-1.762H44.11c-1.779 0-3.224.672-4.28 1.986-1.084 1.315-1.612 3.077-1.612 5.203v8.252c0 2.154.528 3.888 1.584 5.203 1.056 1.314 2.418 1.986 4.141 1.986h5.142c1.696 0 3.057-.644 4.114-1.958 1.056-1.315 1.584-3.05 1.584-5.175h6.476c0 2.601-.5 4.867-1.529 6.853-1.028 1.958-2.446 3.496-4.28 4.56-1.834 1.062-3.975 1.594-6.393 1.594h-5.142c-2.501 0-4.641-.532-6.504-1.595ZM83.94 41.259H71.431l-2.946 7.832H61.62l13.063-33.595h2.946c2.057 0 3.474.952 4.197 2.882L93.695 49.09H86.83l-2.89-7.832Zm-10.73-5.567h8.978l-4.447-12.084h-.055L73.21 35.692ZM97.836 47.86c-.834-.811-1.251-1.902-1.251-3.245V15.496h6.587V43.33h18.122v5.762h-20.067c-1.418 0-2.558-.42-3.391-1.23ZM124.602 15.496h17.594c1.945 0 3.669.364 5.142 1.12 1.501.755 2.668 1.817 3.474 3.216.834 1.399 1.251 2.993 1.251 4.783v4.476c0 1.846-.417 3.496-1.279 4.923-.861 1.426-2.057 2.517-3.613 3.3-1.529.784-3.335 1.175-5.364 1.175h-10.618v10.602h-6.587V15.496Zm17.149 17.231c1.112 0 2.029-.363 2.724-1.09.695-.728 1.056-1.679 1.056-2.854v-3.888c0-1.119-.306-2.014-.917-2.657-.612-.644-1.445-.98-2.446-.98h-10.979v11.47h10.562ZM156.176 15.496h6.587v33.595h-6.587V15.496ZM169.156 15.496h5.865l16.037 22.854V15.496h6.448v33.595h-5.864l-16.037-22.853V49.09h-6.449V15.496ZM208.374 47.888c-1.89-1.063-3.336-2.545-4.364-4.475-1.028-1.93-1.556-4.168-1.556-6.685v-8.84c0-2.517.528-4.755 1.556-6.685 1.028-1.93 2.502-3.44 4.392-4.476 1.89-1.062 4.085-1.594 6.559-1.594h5.337c2.39 0 4.474.476 6.309 1.427a10.286 10.286 0 0 1 4.225 4.084c1 1.762 1.5 3.804 1.5 6.098h-6.476c0-1.735-.5-3.133-1.528-4.168-1.029-1.063-2.363-1.595-4.003-1.595h-5.336c-1.779 0-3.224.672-4.281 1.986-1.083 1.315-1.612 3.077-1.612 5.203v8.252c0 2.154.529 3.888 1.585 5.203 1.056 1.314 2.473 1.986 4.224 1.986h5.615c1.612 0 2.974-.588 4.03-1.763 1.056-1.174 1.584-2.657 1.584-4.42v-1.062h-9.255v-5.762h15.731v6.825c0 2.35-.5 4.42-1.528 6.238a11.08 11.08 0 0 1-4.281 4.28c-1.834 1.034-3.946 1.538-6.309 1.538h-5.642c-2.446 0-4.614-.532-6.476-1.595ZM21.79 29.733c3.197 0 5.782 2.63 5.726 5.847-.027 3.076-.139 6.433-.305 7.552-.584 3.58-3.697 6.098-7.366 6.21-3.502.084-6.976.112-10.478 0-4.586-.14-7.894-3.637-7.977-8.28v-2.406h5.836c0 .728-.027 1.483 0 2.266.056 1.734.779 2.602 2.446 2.63 3.224.056 6.449.056 9.645 0 1.668-.029 2.446-.952 2.446-2.658.055-3.189.028-10.545.028-11.16ZM7.254 35.188a5.814 5.814 0 0 1-5.81-5.874v-2.182c0-2.042.028-4.112.417-6.098.668-3.413 3.975-5.986 7.45-6.042 3.307-.028 6.614-.028 9.95 0 4.586.028 8.227 3.552 8.282 8.168.028 1.986.028 2.63.028 2.63s-4.614.027-5.781.027c0-.923.028-1.65 0-2.405-.028-1.427-1.167-2.574-2.557-2.602-3.14-.056-6.31-.056-9.45 0-1.64.028-2.502 1.035-2.53 2.77-.027 3.188 0 11.132 0 11.608Z" fill="#fff"/><path d="M12.424 52.64v6.492a1 1 0 0 0 1 1.008h2.168a1 1 0 0 0 1.001-1.008V52.64h-4.17ZM12.424 4.368v7.392h4.169V4.368a1 1 0 0 0-1-1.007h-2.169c-.528-.028-1 .448-1 1.007ZM18.763 37.96a2.36 2.36 0 0 1-2.36 2.36h-3.851a2.36 2.36 0 0 1-2.36-2.36V26.44a2.36 2.36 0 0 1 2.359-2.36h3.851a2.36 2.36 0 0 1 2.36 2.36l.001 11.52Z" fill="#2AF895"/><path d="M8.867 79.917c-1.111-.644-1.973-1.567-2.585-2.77-.611-1.202-.917-2.545-.917-4.111v-16.28h2.502V73.12c0 1.65.444 2.992 1.306 4 .89 1.006 2.029 1.51 3.474 1.51h3.67c1.445 0 2.612-.504 3.474-1.51.889-1.008 1.306-2.35 1.306-4V56.755h2.501v16.28c0 1.538-.305 2.909-.917 4.111-.611 1.203-1.473 2.126-2.585 2.77-1.112.643-2.39.979-3.835.979h-3.558c-1.445-.028-2.724-.336-3.836-.98ZM33.354 56.756h2.363l13.118 19.86v-19.86h2.446v23.832H48.92l-13.12-19.72v19.72h-2.445V56.756ZM61.426 56.756h2.501v23.832h-2.501V56.756ZM80.938 80.224c-.278-.251-.528-.643-.722-1.202l-8.089-22.266h2.585l7.366 20.811h.028l7.42-20.811h2.586L83.3 80.588h-1.279c-.445 0-.806-.112-1.084-.364ZM100.533 80c-.389-.391-.584-.95-.584-1.65V56.756h15.899v2.182h-13.397v8.391h12.396v2.182h-12.396v8.923h13.397v2.182h-13.703c-.695-.028-1.223-.224-1.612-.615ZM124.658 56.756h11.507c1.723 0 3.14.504 4.169 1.483 1.056.979 1.584 2.293 1.584 3.888v2.49a4.92 4.92 0 0 1-1.14 3.188c-.778.923-1.806 1.566-3.085 1.958v.028c.667.364 1.279.951 1.835 1.734s.972 1.678 1.278 2.685l1.862 6.378h-2.584l-1.863-6.377c-.305-1.12-.861-2.014-1.64-2.686-.778-.671-1.639-1.035-2.557-1.035h-6.865v10.07h-2.501V56.756Zm10.617 11.524c1.251 0 2.251-.335 3.002-1.007.75-.67 1.139-1.538 1.139-2.629v-2.63c0-.894-.305-1.622-.917-2.181-.611-.532-1.417-.811-2.39-.811h-8.922v9.258h8.088ZM153.537 80a6.223 6.223 0 0 1-2.419-2.461c-.583-1.063-.861-2.266-.861-3.664h2.446c0 1.398.417 2.545 1.223 3.412.834.867 1.917 1.315 3.279 1.315h3.725c1.334 0 2.39-.308 3.224-.895.834-.588 1.223-1.399 1.223-2.378v-2.182c0-.783-.306-1.426-.889-1.986-.612-.531-1.418-.895-2.446-1.063l-6.087-1.035c-1.724-.307-3.058-.895-4.003-1.846-.945-.923-1.417-2.098-1.417-3.496v-1.846c0-1.65.611-2.993 1.834-3.972 1.223-.98 2.863-1.483 4.892-1.483h3.836c1.917 0 3.474.587 4.641 1.762 1.168 1.175 1.751 2.714 1.751 4.616h-2.446c0-1.259-.361-2.238-1.084-2.993-.722-.756-1.667-1.12-2.862-1.12h-3.836c-1.279 0-2.307.28-3.085.868-.778.587-1.14 1.37-1.14 2.322v1.846c0 .783.278 1.454.862 2.014.584.531 1.362.895 2.39 1.09l6.059 1.064c1.751.307 3.113.923 4.086 1.818.973.895 1.445 2.042 1.445 3.412v2.182c0 1.65-.639 2.993-1.89 4-1.25 1.007-2.918 1.51-4.975 1.51h-3.891c-1.362.057-2.557-.223-3.585-.81ZM177.022 56.756h2.502v23.832h-2.502V56.756ZM195.505 58.938h-7.504v-2.182h17.538v2.182h-7.504v21.65h-2.502v-21.65h-.028ZM220.215 71.441l-8.728-14.685h2.696l7.282 12.391 7.283-12.391h2.696l-8.728 14.685v9.175h-2.501v-9.175Z" fill="#fff" fill-opacity=".5"/></svg>
